X:1
T:Sagt mir eins Jungfrau
T:Giovanni Giacomo Gastoldi
T:Source : Tricinia---Johann-Jacob Gastoldi und anderer Autorn---Nürnberg---P.Kauffmann---1607. Editor : André Vierendeels (11/03/17). 
T:Notes : Original clefs : G2, G2, C4 Editorial accidentals above the staff Text Middle German by Valentin Hauszmann
T:Sagt mir eins Jungfrau
T:©
T:©
T:©
C:Giovanni Giacomo Gastoldi
Z:©
%%score [ 1 2 3 ]
L:1/8
Q:1/4=99
M:4/4
K:C
V:1 treble nm="Soprano 1" snm="S 1"
V:2 treble nm="Soprano 2" snm="S 2"
V:3 treble-8 nm="Tenor" snm="T"
V:1
"^1)" z2 ef g4 | f2 e2 d4 | c2 e2 f3 e | d2 c2 B4 | B2 c3 d e2 | d2 B2 c3 B | A2 G4 ^F2 | %7
w: Sa- get mir|eins Jung- frau-|e, ob euch auch|sey zu glau-|ben, wenn ich auff|eu- re gunst soll|stand- hafft bau-|
w: Disz wolt ihr|mir ver- nei-|nen, und thut si|weisz euch bren-|nen, Darzu schwert ifr|mir auch bey Stein|und Bei- *|
[M:2/4] G4 ::[M:4/4] B2 BB A2 A2 | ^G4 G2 B2 | c2 e3 d c2 | ABcA B4 | B4 z ddd | e2 e2 AGAB | %14
w: en?|Denn wie ich hab er-|fa- hren, habt|ihr man- chen be-|tro- * * * *|gen, den ihr ge-|bracht in eu- * * *|
w: nen,|dasz bey euch solch ver-|fü- hren, sey|mit nich- ten zu|fin- * * * *|den, das soll ich|jetzt und all- * * *|
 c2 c2 cBcd | edef g2 e2 | d4 !fermata!e4 :| %17
w: * ren strick _ _ _|_ _ _ _ _ und|Ga- ren.|
w: * zeit an- * * *|* * * * * euch|spü- ren.|
V:2
"^2)""^1)" z2 cA e4 | c2 c2 g4 | e2 g2 a3 g | f2 e2 d4 | d2 e3 f g2 | f2 d2 e3 d | c2 B2 A4 | %7
w: Sa- get mir|eins Jung- frau-|e, ob euch auch|sey zu glau-|ben, wenn ich auff|eu- re gunst soll|stand- hafft bau-|
w: Wer da will,|mags drauff wa-|gen, ich kenn euch|gar zu e-|ben, bes- ser ist|nicht, ich musz mich|eur ent- schla-|
[M:2/4] B4 ::[M:4/4] d2 dd c2 d2 | e4 e4 | z2 B2 c2 e2- | ed c2 d2 d2 | z ddc B2 B2 | GABc d2 d2 | %14
w: en?|Denn wie ich hab er-|fa- hren,|habt ihr man-|* chen be- tro- gen,|den ihr ge- bracht in|eu- * * * * ren|
w: gen,|ihr mögt ein an- dern|we- hlen,|der euch nicht|_ so voll ken- net,|bi euch zu klug, wills|euch- * * * * gar|
 ABcd edef | g2 e2 d2 c2- | c2 B2 !fermata!c4 :| %17
w: Strick _ _ _ _ _ _ _|_ _ und Ga-|* * ren.|
w: nicht _ _ _ _ _ _ _|_ _ ver- he-|* * len.|
V:3
"^3)""^1)" z2 cd c4 | A2 c2 B4 | c2 c2 F3 G | _B2 c2 G4 | G2 c2 c3 c | d2 G2 c2 e2 | f2 g2 d4 | %7
w: Sa- get mir|eind Jung- frau-|e, ob euch auch|sey zu glau-|ben, wenn ich auff|eu- re gunst soll|stand- hafft bau-|
[M:2/4] G4 ::[M:4/4] G2 GG A2 F2 | E4 E4 | z2 E2 A2 c2- | cB A2 G4 | G4 z GGF | E2 E2 DEFG | %14
w: en?|Denn wie ich hab er-|fa- hren,|habt ihr man-|* chen be- tro-|gen, den ihr ge-|bracht in eu- * * *|
 AGAB c4 | c4 G4- | G4 !fermata!C4 :| %17
w: * * * ren Strick|und Ga-|* ren.|

